X: 80
T: Sibao kang changgong
L: 1/8
M: 2/4
K: Eb
c B c G [I:setbarnb 1]| 
B2B2 | 
G B c e | 
B4 | 
f> fe2 | 
f g/ f/e2 | 
G B c e | 
B4 | 
G2e2 | 
cc2d | 
c d c B | 
c3d | 
c B A G | 
F4 | 
G2c2 | 
G2B2 | 
G F G B | 
G3B | 
G F E F | 
E4 | 
G F E F | 
G F E F | 
G F E F | 
E4 |]

@@@ Tune index: 8954
